X: 12941
T: Fiddler's Choice
R: reel
M: 4/4
K: Amajor
|:EAAB AFEA|cBcd cB A2|e^def e=dcd|ecAc B2 B2|
EAAB AFEA|cBcd cB A2|e^def e=dBA|EAAG A2A2:|
|:afef edcd|ecAc BA F2|EAAG ABcd|efec B2 Bc|
dcde fedf|ecAc BA F2|afef ecBA|EAAG A2 A2:|

